src/new/technology-icons/notifications.svg

<svg viewBox="0 0 48 48">
<path d="M36 0H12C5.37258 0 0 5.37258 0 12V36C0 42.6274 5.37258 48 12 48H36C42.6274 48 48 42.6274 48 36V12C48 5.37258 42.6274 0 36 0Z" fill="white"/>
<path fill-rule="evenodd" clipRule="evenodd" d="M36 2H12C6.47715 2 2 6.47715 2 12V36C2 41.5228 6.47715 46 12 46H36C41.5228 46 46 41.5228 46 36V12C46 6.47715 41.5228 2 36 2ZM12 0H36C42.6274 0 48 5.37258 48 12V36C48 42.6274 42.6274 48 36 48H12C5.37258 48 0 42.6274 0 36V12C0 5.37258 5.37258 0 12 0Z" fill="black"/>
<path fill-rule="evenodd" clipRule="evenodd" d="M24.4131 37.5074C25.6265 37.5074 26.6798 36.854 27.2531 35.8807C27.6798 35.1474 27.0798 34.214 26.2265 34.214H22.5998C21.6798 34.214 21.1465 35.2407 21.6398 36.014C22.2265 36.9207 23.2398 37.5207 24.3998 37.5207L24.4131 37.5074Z" fill="black"/>
<path d="M23.9999 12.2941C24.7999 12.2941 25.4399 12.9475 25.4399 13.7475V14.6941C28.7599 15.3875 31.2266 18.2008 31.2266 21.7075C31.2266 26.3341 32.8666 27.7475 33.7333 28.6808C33.9999 28.9741 34.1199 29.3208 34.1199 29.6675C34.1199 30.4141 33.5333 31.1208 32.6666 31.1208H15.3066C14.4399 31.1208 13.8666 30.4141 13.8533 29.6675C13.8533 29.3208 13.9733 28.9741 14.2399 28.6808C15.1199 27.7475 16.7466 26.3341 16.7466 21.7075C16.7466 18.2008 19.2133 15.3875 22.5333 14.6941V13.7475C22.5333 12.9475 23.1866 12.2941 23.9733 12.2941M23.9733 10.4941C22.3199 10.4941 20.9599 11.7341 20.7599 13.3341C17.2799 14.6408 14.9466 17.9075 14.9466 21.7075C14.9466 25.5075 13.8799 26.4408 13.1066 27.2675L12.9199 27.4675C12.0399 28.4141 11.7866 29.7875 12.3466 31.0408C12.8799 32.2275 14.1466 32.9208 15.4399 32.9208H32.4933C33.7999 32.9208 35.0533 32.2275 35.5999 31.0408C36.1733 29.7741 35.9066 28.4008 35.0266 27.4675L34.8399 27.2675C34.0666 26.4541 32.9999 25.3341 32.9999 21.7075C32.9999 18.0808 30.6666 14.6541 27.1866 13.3341C26.9866 11.7341 25.6133 10.4941 23.9733 10.4941Z" fill="#EE0000"/>
</svg>

<svg viewBox="0 0 48 48">
    <path fill="#fff" d="M36 0H12C5.373 0 0 5.373 0 12v24c0 6.627 5.373 12 12 12h24c6.627 0 12-5.373 12-12V12c0-6.627-5.373-12-12-12"/>
    <path fill-rule="evenodd" d="M36 2H12C6.477 2 2 6.477 2 12v24c0 5.523 4.477 10 10 10h24c5.523 0 10-4.477 10-10V12c0-5.523-4.477-10-10-10M12 0h24c6.627 0 12 5.373 12 12v24c0 6.627-5.373 12-12 12H12C5.373 48 0 42.627 0 36V12C0 5.373 5.373 0 12 0"/>
    <path fill-rule="evenodd" d="M24.413 37.507a3.29 3.29 0 0 0 2.84-1.626c.427-.734-.173-1.667-1.026-1.667H22.6c-.92 0-1.454 1.027-.96 1.8a3.28 3.28 0 0 0 2.76 1.507z"/>
    <path fill="#e00" d="M24 12.294c.8 0 1.44.653 1.44 1.454v.946c3.32.693 5.787 3.507 5.787 7.013 0 4.627 1.64 6.04 2.506 6.974.267.293.387.64.387.986 0 .747-.587 1.454-1.453 1.454h-17.36c-.867 0-1.44-.707-1.454-1.453 0-.347.12-.694.387-.987.88-.934 2.507-2.347 2.507-6.974 0-3.506 2.466-6.32 5.786-7.013v-.947c0-.8.654-1.453 1.44-1.453m0-1.8a3.24 3.24 0 0 0-3.213 2.84c-3.48 1.307-5.813 4.573-5.813 8.374 0 3.8-1.067 4.733-1.84 5.56l-.187.2c-.88.946-1.133 2.32-.573 3.573.533 1.186 1.8 1.88 3.093 1.88h17.053c1.307 0 2.56-.694 3.107-1.88.573-1.267.307-2.64-.573-3.573l-.187-.2c-.773-.814-1.84-1.934-1.84-5.56 0-3.627-2.333-7.054-5.813-8.374a3.25 3.25 0 0 0-3.214-2.84"/>
</svg>
